X:3
T:Jerry's Beaver Hat
R:Jig
O:Ireland
M:6/8
C:Trad.-Ashley MacIsaac
K:D
DFA d2 e|fdB BAF|ABA AFD|EFE E2 E|DFA d2 e|fdB BAF|
ABc dAF|1.EDD D2 D:|2.EDD D3|:A|dfa afd|fbf g2f|
dfa afd|cAe e2 A|dfa afd|fbf gef|ABc dAF|1.EDD D2:|2.EDD D2||

